X:1570
T:Dog's Bark, The
O:england
R:double jig
M:6/8
L:1/8
Q:120
K:G
d|dge dBG|AEF GDB,|G,B,D GAB|cBc ABc|
dge dBG|AEF GDB,|G,B,D GAB|1 cAF G2:|2 cAF G|
|:Bc|d2d bag|fed cAF|DGG FAA|GBB ABc|
d2g bag|fed ^cde|fge cAF|1 AGF G:|2 AGF G2||
